lib/logo_tmp/nrk-logo-nrk-p3-on-light.svg

<svg width="68" height="16" viewBox="0 0 68 16" fill="none" xmlns="http://www.w3.org/2000/svg">
<path d="M54.0553 1.00583H49.7372C49.7372 1.00583 52.1909 5.03381 52.2186 5.08451C52.311 5.20099 52.3627 5.34463 52.3656 5.49332C52.3685 5.64202 52.3225 5.78755 52.2347 5.90756L49.7372 10.0014H54.0559C54.0559 10.0014 56.1386 6.59597 56.4233 6.12321C56.5584 5.9421 56.6305 5.72168 56.6284 5.49574C56.6263 5.26979 56.5503 5.05075 56.4118 4.87216C56.1047 4.34903 56.104 4.34938 54.0553 1.00583Z" fill="black"/>
<path d="M49.1792 1.00588H45.3333V14.998H49.1792V1.00588Z" fill="black"/>
<path d="M67.5809 3.32386C67.4357 3.07629 66.1504 1.00583 66.1504 1.00583H56.9073L58.9264 4.3925H63.7949L61.7866 7.68469L64.0253 11.446L61.8647 14.997H65.8107C66.4451 13.9593 67.3936 12.354 67.5918 12.0251C67.7277 11.8433 67.8001 11.622 67.7981 11.395C67.796 11.1681 67.7195 10.9481 67.5802 10.7688C67.3827 10.4317 66.3259 8.75564 65.6945 7.72387C65.6945 7.72387 67.3936 4.90838 67.5918 4.57949C67.7276 4.39785 67.8001 4.17666 67.7981 3.94985C67.7962 3.72304 67.7199 3.50313 67.5809 3.32386Z" fill="black"/>
<path d="M58.69 8.13934C58.0816 9.13293 57.0643 10.7981 56.8737 11.1227C56.7396 11.2954 56.6658 11.5073 56.6638 11.7259C56.6618 11.9446 56.7316 12.1578 56.8625 12.3329C57.0535 12.6496 58.0787 14.328 58.69 15.3288C59.301 14.329 60.3266 12.6506 60.5172 12.3329C60.6481 12.1578 60.7179 11.9446 60.7159 11.726C60.714 11.5074 60.6403 11.2955 60.5063 11.1227C60.3157 10.7981 59.2981 9.13293 58.69 8.13934Z" fill="black"/>
<path d="M0 15V1.00132H4.59339V15H0ZM10.8428 3.22929L13.4844 15H8.45737L5.30307 1.00132H8.12254C8.76907 0.992932 9.39641 1.22084 9.88691 1.64217C10.3782 2.04583 10.7158 2.6062 10.8428 3.22929ZM14.1744 15V1.00132H18.7678V15H14.1744ZM22.2372 6.32483C21.7422 6.32966 21.2552 6.20015 20.828 5.95018C20.4064 5.70652 20.0563 5.35634 19.8127 4.93475C19.5624 4.50744 19.4329 4.02027 19.4378 3.52509C19.4321 3.03292 19.5618 2.54866 19.8127 2.12522C20.0589 1.70821 20.4086 1.36183 20.828 1.11966C21.2553 0.86997 21.7423 0.740485 22.2372 0.744999C22.7292 0.7397 23.2133 0.869301 23.6369 1.11966C24.0521 1.36395 24.3981 1.71004 24.6424 2.12522C24.893 2.54878 25.0226 3.03296 25.0172 3.52509C25.0218 4.02023 24.8923 4.50732 24.6424 4.93475C24.4007 5.35449 24.0542 5.70438 23.6369 5.95018C23.2133 6.20102 22.7289 6.33066 22.2366 6.32483H22.2372ZM25.7269 15V1.00132H30.3207V15H25.7269ZM36.136 8.65132C36.1489 8.66491 36.2475 8.82591 36.4317 9.13437C36.6159 9.44282 36.8558 9.83718 37.1513 10.3174C37.447 10.7974 37.759 11.3067 38.0874 11.8454C38.4157 12.3841 38.7247 12.8935 39.0143 13.3735C39.3028 13.8534 39.6313 14.3956 40 15H34.9531C34.6375 14.4874 34.3515 14.0241 34.0952 13.61C33.8389 13.196 33.5665 12.7491 33.2778 12.2693C32.9884 11.79 32.7024 11.3233 32.4196 10.8694C32.1368 10.4155 31.8938 10.0179 31.6905 9.67662C31.4863 9.33508 31.3449 9.10503 31.2663 8.98651C31.0713 8.6924 30.9559 8.35273 30.9315 8.00069C30.951 7.66281 31.0597 7.33619 31.2466 7.05401C31.3254 6.92257 31.47 6.68922 31.6803 6.35404C31.8906 6.01886 32.137 5.62128 32.4196 5.16123C32.7021 4.70118 32.9882 4.23126 33.2778 3.75149C33.5674 3.27172 33.8398 2.82149 34.0952 2.40087C34.3519 1.98069 34.6379 1.51407 34.9531 1.001H40L36.0962 7.36946C35.9754 7.55854 35.9073 7.77645 35.8991 8.00069C35.9121 8.23609 35.9942 8.46242 36.1353 8.65132H36.136Z" fill="black"/>
</svg>

<svg xmlns="http://www.w3.org/2000/svg" viewBox="0 0 68 16"><path fill="#000" d="M54.055 1.006h-4.318s2.454 4.028 2.482 4.079a.68.68 0 0 1 .016.823L49.737 10h4.319s2.083-3.405 2.367-3.878a1.033 1.033 0 0 0-.011-1.25c-.307-.524-.308-.524-2.357-3.867ZM49.18 1.006h-3.847v13.992h3.846V1.006ZM67.58 3.324c-.144-.248-1.43-2.318-1.43-2.318h-9.243l2.02 3.386h4.868l-2.008 3.293 2.238 3.761-2.16 3.551h3.946c.634-1.038 1.583-2.643 1.78-2.972a1.037 1.037 0 0 0-.01-1.256c-.198-.337-1.255-2.013-1.886-3.045l1.897-3.145a1.036 1.036 0 0 0-.011-1.255Z"/><path fill="#000" d="M58.69 8.14c-.608.993-1.626 2.658-1.816 2.983a.998.998 0 0 0-.012 1.21c.191.317 1.217 1.995 1.828 2.996.611-1 1.637-2.678 1.827-2.996a.998.998 0 0 0-.01-1.21 452.83 452.83 0 0 0-1.817-2.984ZM0 15V1.001h4.593V15H0ZM10.843 3.23 13.484 15H8.457L5.303 1.001h2.82a2.655 2.655 0 0 1 1.764.641c.491.404.829.964.956 1.587ZM14.174 15V1.001h4.594V15h-4.594Zm8.063-8.675a2.737 2.737 0 0 1-1.409-.375 2.778 2.778 0 0 1-1.015-1.015 2.735 2.735 0 0 1-.375-1.41 2.685 2.685 0 0 1 .375-1.4 2.812 2.812 0 0 1 3.824-1.005c.415.244.761.59 1.005 1.005.251.424.38.908.375 1.4.005.495-.125.982-.375 1.41a2.8 2.8 0 0 1-1.005 1.015c-.424.251-.908.38-1.4.375ZM25.727 15V1.001h4.594V15h-4.594Zm10.409-6.349c.013.014.111.175.296.483.184.309.424.703.72 1.183a384.573 384.573 0 0 1 1.862 3.056c.289.48.617 1.023.986 1.627h-5.047l-.858-1.39c-.256-.414-.529-.86-.817-1.34-.29-.48-.576-.947-.858-1.4a71.236 71.236 0 0 1-.73-1.193 21.1 21.1 0 0 0-.424-.69A2.04 2.04 0 0 1 30.932 8c.019-.338.128-.665.315-.947.078-.131.223-.365.433-.7a216.7 216.7 0 0 0 1.598-2.603l.817-1.35.858-1.4H40l-3.904 6.368c-.12.19-.189.407-.197.632.013.235.095.461.236.65h.001Z"/></svg>
